wordpress/wp-content/themes/bluearrow-2017/assets/images/logo-reaktor.svg

<?xml version="1.0" encoding="UTF-8"?>
<svg width="106px" height="26px" viewBox="0 0 106 26" version="1.1" xmlns="http://www.w3.org/2000/svg" xmlns:xlink="http://www.w3.org/1999/xlink">
    <!-- Generator: Sketch 41.2 (35397) - http://www.bohemiancoding.com/sketch -->
    <title>logo-reaktor</title>
    <desc>Created with Sketch.</desc>
    <defs></defs>
    <g id="export" stroke="none" stroke-width="1" fill="none" fill-rule="evenodd">
        <g id="logo-reaktor" fill="#FFFFFF">
            <path d="M20.15,10.2079648 C20.15,11.2592923 19.35,11.9893808 17.84,11.9893808 L15.61,11.9893808 L15.61,8.46548687 L17.88,8.46548687 C19.39,8.46548687 20.19,9.15663734 20.19,10.2079648 L20.15,10.2079648 Z M25.02,20.9159299 L21.02,14.4327437 C22.7757101,13.6627548 23.8783891,11.9353046 23.81,10.0619471 C23.81,6.87876114 21.15,5 18,5 L12,5 L12,20.9159299 L15.61,20.9159299 L15.61,15.1920358 L17.46,15.1920358 L20.99,20.9159299 L25.02,20.9159299 Z M34.02,14.0336287 L28.8,14.0336287 C29.0551462,12.8346643 30.1524586,11.9833942 31.41,12.0088498 C32.675914,11.9588901 33.7875229,12.8212512 34.02,14.0336287 L34.02,14.0336287 Z M37.2,16.3504429 C37.2502988,15.9499952 37.2736819,15.5467774 37.27,15.1433632 C37.3308251,13.5671861 36.7219435,12.036228 35.5866682,10.9108319 C34.4513929,9.78543579 32.8900015,9.16500664 31.27,9.19557539 C27.8568809,9.22783359 25.1168645,11.9474064 25.1500016,15.2699119 C25.1831387,18.5924174 27.9768809,21.2596908 31.39,21.2274343 C33.484188,21.1990719 35.4325157,20.178104 36.61,18.4920359 L33.88,17.109735 C33.2957269,17.8516318 32.3903214,18.2869198 31.43,18.2876112 C30.1809312,18.3696207 29.0635213,17.5361003 28.82,16.3407084 L37.2,16.3504429 Z M46.53,16.5743368 C46.5595636,16.837495 46.5036046,17.1030524 46.37,17.3336288 C45.7564019,18.0856588 44.8163023,18.514406 43.83,18.4920359 C42.96,18.4920359 42.16,18.2194696 42.16,17.4212394 C42.16,16.3991155 43.42,16.1752217 44.36,15.9707969 C45.3,15.7663721 45.83,15.6787615 46.53,15.5424783 L46.53,16.5743368 Z M46.53,20.9159299 L49.8,20.9159299 L49.8,13.8292039 C49.8,11.4929206 48.24,9.16637185 44.6,9.16637185 C41.3,9.16637185 39.6,11.064602 39.2,12.4176994 L42.34,13.0212393 C42.7994247,12.329597 43.6053288,11.9317657 44.45,11.9796463 C45.75,11.9796463 46.53,12.6513277 46.53,13.3327437 C45.84,13.4203543 43.12,13.868142 42.41,14.0044251 C40.33,14.4035402 38.72,15.5424783 38.72,17.7035403 C38.7737254,18.690796 39.2333005,19.615476 39.9951672,20.2692181 C40.7570339,20.9229602 41.7570942,21.2507631 42.77,21.1787617 C44.1246457,21.2170973 45.4313617,20.689154 46.36,19.7283192 L46.52,19.7283192 L46.53,20.9159299 Z M59.38,14.1017703 L63.7,9.52654886 L59.47,9.52654886 L55.74,13.4203543 L55.74,5.19469027 L52.37,5.19469027 L52.37,20.9159299 L55.61,20.9159299 L55.61,17.9955758 L56.87,16.6619474 L56.87,16.6619474 L61.22,23.7000008 L65.22,23.7000008 L59.38,14.1017703 Z M69.01,21.2761069 C69.9975384,21.2692578 70.9784413,21.1183175 71.92,20.8283192 L71.92,17.9955758 C71.3040694,18.1392924 70.673356,18.2144056 70.04,18.2194696 C68.94,18.2194696 68.46,17.5088501 68.46,16.4380536 L68.46,12.2230091 L71.61,12.2230091 L71.61,9.52654886 L68.35,9.52654886 L68.35,6.60619476 L64.98,6.60619476 L64.98,17.3628324 C64.9285618,18.3894473 65.3229207,19.3898082 66.0666728,20.1193697 C66.8104249,20.8489313 67.8350242,21.2404552 68.89,21.1982307 L69.01,21.2761069 Z M82.07,15.0752216 C81.9294654,16.5896775 80.5781231,17.7213295 79.0188274,17.6303595 C77.4595316,17.5393895 76.2567061,16.2587262 76.3029881,14.7387716 C76.34927,13.218817 77.6279067,12.0097545 79.19,12.0088498 C79.997053,12.0228696 80.7626866,12.35928 81.3073479,12.9391876 C81.8520091,13.5190952 82.1277843,14.2914857 82.07,15.0752216 L82.07,15.0752216 Z M85.34,15.0752216 C85.2904673,11.7860567 82.5199505,9.15409623 79.1408783,9.18612422 C75.7618061,9.21815221 73.0444614,11.9021285 73.0607308,15.1916087 C73.0770002,18.4810889 75.8207677,21.1394703 79.2,21.1398237 C80.8500815,21.1589099 82.4370265,20.5231914 83.5953723,19.3790698 C84.7537181,18.2349483 85.3836143,16.681048 85.34,15.0752216 L85.34,15.0752216 Z M94.14,12.5247791 L94.14,9.23451345 C92.7645731,9.24994763 91.4674061,9.85990993 90.6,10.8991153 L90.6,9.56548691 L87.24,9.56548691 L87.24,20.9159299 L90.61,20.9159299 L90.61,15.4061951 C90.61,13.5371685 92.05,12.6026552 94.15,12.6026552 L94.14,12.5247791 Z" id="Shape"></path>
        </g>
    </g>
</svg>

<svg width="106" height="26" viewBox="0 0 106 26" xmlns="http://www.w3.org/2000/svg"><title>logo-reaktor</title><path d="M20.15 10.208c0 1.051-.8 1.781-2.31 1.781h-2.23V8.465h2.27c1.51 0 2.31.692 2.31 1.743h-.04zm4.87 10.708l-4-6.483c1.756-.77 2.858-2.498 2.79-4.371C23.81 6.879 21.15 5 18 5h-6v15.916h3.61v-5.724h1.85l3.53 5.724h4.03zm9-6.882H28.8c.255-1.2 1.352-2.05 2.61-2.025 1.266-.05 2.378.812 2.61 2.025zm3.18 2.316c.05-.4.074-.803.07-1.207a5.651 5.651 0 0 0-1.683-4.232 5.973 5.973 0 0 0-4.317-1.715c-3.413.032-6.153 2.751-6.12 6.074.033 3.322 2.827 5.99 6.24 5.957 2.094-.028 4.043-1.049 5.22-2.735l-2.73-1.382a3.12 3.12 0 0 1-2.45 1.178c-1.25.082-2.366-.752-2.61-1.947l8.38.01zm9.33.224c.03.263-.026.53-.16.76a3.184 3.184 0 0 1-2.54 1.158c-.87 0-1.67-.273-1.67-1.07 0-1.023 1.26-1.247 2.2-1.451.94-.205 1.47-.292 2.17-.429v1.032zm0 4.342h3.27v-7.087c0-2.336-1.56-4.663-5.2-4.663-3.3 0-5 1.899-5.4 3.252l3.14.603a2.37 2.37 0 0 1 2.11-1.041c1.3 0 2.08.671 2.08 1.353-.69.087-3.41.535-4.12.671-2.08.4-3.69 1.538-3.69 3.7a3.643 3.643 0 0 0 1.275 2.565 3.846 3.846 0 0 0 2.775.91 4.805 4.805 0 0 0 3.59-1.45h.16l.01 1.187zm12.85-6.814l4.32-4.575h-4.23l-3.73 3.893V5.195h-3.37v15.72h3.24v-2.92l1.26-1.333 4.35 7.038h4l-5.84-9.598zm9.63 7.174a10.127 10.127 0 0 0 2.91-.448v-2.832a8.577 8.577 0 0 1-1.88.223c-1.1 0-1.58-.71-1.58-1.78v-4.216h3.15V9.527h-3.26v-2.92h-3.37v10.756a3.607 3.607 0 0 0 1.087 2.756 3.816 3.816 0 0 0 2.823 1.08l.12.077zm13.06-6.2c-.14 1.514-1.492 2.645-3.051 2.554-1.56-.09-2.762-1.371-2.716-2.891.046-1.52 1.325-2.73 2.887-2.73.807.014 1.573.35 2.117.93.545.58.82 1.352.763 2.136zm3.27 0c-.05-3.29-2.82-5.922-6.2-5.89-3.378.032-6.096 2.716-6.08 6.006.017 3.29 2.76 5.947 6.14 5.948a6.155 6.155 0 0 0 4.395-1.76 5.826 5.826 0 0 0 1.745-4.305zm8.8-2.551v-3.29a4.678 4.678 0 0 0-3.54 1.664V9.565h-3.36v11.35h3.37v-5.509c0-1.869 1.44-2.803 3.54-2.803l-.01-.078z" fill="#FFF" fill-rule="evenodd"/></svg>
